X:1
T:Title
L:1/8
M:6/8
K:Ab
V:1 treble nm="Grand Piano"
V:1
 z3[Q:1/4=140] F3/2G3/2 | A3/2G3/2 F3/2G3/2 | A3 F3- | F3/2A3/2- A3/2F3/2 | G3 =E3/2F3/2 | %5
 G3/2F3/2 =E3/2F3/2 | G3 =E3- | E3/2A3/2- A3/2G3/2 | F3 c2 c | c2 B B2 =A | =A2 G F2 G | E6- | %12
 E3 B2 B | B2 A A2 G | G2 F E2 F | D6- | D3 C2 C | F2 F F2 G | A2 G F2 A | G6- | G3 G2 G | %21
 A2 A B2 B | c2 d B2 d | c3 B3/2c3/2- | c3 c3/2c3/2 | c3 A3 | F3 C3 | c3/2c3/2 (4:3:4BcBc | %28
 d3 B3/2B3/2 | B3 G3 | =E3 C3 | B3/2B3/2 A3/2B3/2 | c3 c3/2c3/2 | c3 A3 | F3- F3/2C3/2 | %35
 c3/2c3/2 (4:3:4BcBc | d3 B2 c | d2 c B2 A | G2 F =E2 G | F6- | F3 z3 |] %41

